media/background-images/facebook-logo-black.svg

<svg width="36" height="36" viewBox="0 0 36 36" fill="none" xmlns="http://www.w3.org/2000/svg">
<circle cx="18" cy="18" r="17.5" stroke="#181818"/>
<path d="M20.3024 13.816H21.4867V11.7535C21.2823 11.7253 20.5797 11.6621 19.7614 11.6621C18.0539 11.6621 16.8842 12.7361 16.8842 14.71V16.5267H15V18.8325H16.8842V24.6344H19.1944V18.8331H21.0024L21.2894 16.5272H19.1938V14.9387C19.1944 14.2722 19.3738 13.816 20.3024 13.816Z" fill="#181818"/>
</svg>

<svg width="36" height="36" fill="none" xmlns="http://www.w3.org/2000/svg"><circle cx="18" cy="18" r="17.5" stroke="#181818"/><path d="M20.302 13.816h1.185v-2.063a15.266 15.266 0 00-1.726-.09c-1.707 0-2.877 1.073-2.877 3.047v1.817H15v2.305h1.884v5.802h2.31v-5.8h1.808l.287-2.307h-2.095V14.94c0-.667.18-1.123 1.108-1.123z" fill="#181818"/></svg>
